images/6603915.svg

<?xml version="1.0" encoding="UTF-8"?>
<svg xmlns="http://www.w3.org/2000/svg" xmlns:xlink="http://www.w3.org/1999/xlink" width="300pt" height="300pt" viewBox="0 0 300 300" version="1.1">
<defs>
<g>
<symbol overflow="visible" id="glyph0-0">
<path style="stroke:none;" d="M 0.453125 1.59375 L 0.453125 -6.34375 L 4.953125 -6.34375 L 4.953125 1.59375 Z M 0.953125 1.09375 L 4.453125 1.09375 L 4.453125 -5.84375 L 0.953125 -5.84375 Z M 0.953125 1.09375 "/>
</symbol>
<symbol overflow="visible" id="glyph0-1">
<path style="stroke:none;" d="M 3.546875 -5.953125 C 2.898438 -5.953125 2.382812 -5.710938 2 -5.234375 C 1.625 -4.753906 1.4375 -4.101562 1.4375 -3.28125 C 1.4375 -2.445312 1.625 -1.789062 2 -1.3125 C 2.382812 -0.832031 2.898438 -0.59375 3.546875 -0.59375 C 4.191406 -0.59375 4.703125 -0.832031 5.078125 -1.3125 C 5.453125 -1.789062 5.640625 -2.445312 5.640625 -3.28125 C 5.640625 -4.101562 5.453125 -4.753906 5.078125 -5.234375 C 4.703125 -5.710938 4.191406 -5.953125 3.546875 -5.953125 Z M 3.546875 -6.6875 C 4.460938 -6.6875 5.195312 -6.375 5.75 -5.75 C 6.300781 -5.132812 6.578125 -4.3125 6.578125 -3.28125 C 6.578125 -2.238281 6.300781 -1.410156 5.75 -0.796875 C 5.195312 -0.179688 4.460938 0.125 3.546875 0.125 C 2.617188 0.125 1.878906 -0.179688 1.328125 -0.796875 C 0.773438 -1.410156 0.5 -2.238281 0.5 -3.28125 C 0.5 -4.3125 0.773438 -5.132812 1.328125 -5.75 C 1.878906 -6.375 2.617188 -6.6875 3.546875 -6.6875 Z M 3.546875 -6.6875 "/>
</symbol>
<symbol overflow="visible" id="glyph0-2">
<path style="stroke:none;" d="M 0.890625 -6.5625 L 2.078125 -6.5625 L 4.984375 -1.078125 L 4.984375 -6.5625 L 5.84375 -6.5625 L 5.84375 0 L 4.65625 0 L 1.75 -5.484375 L 1.75 0 L 0.890625 0 Z M 0.890625 -6.5625 "/>
</symbol>
<symbol overflow="visible" id="glyph0-3">
<path style="stroke:none;" d="M 0.890625 -6.5625 L 4.65625 -6.5625 L 4.65625 -5.8125 L 1.765625 -5.8125 L 1.765625 -3.875 L 4.375 -3.875 L 4.375 -3.140625 L 1.765625 -3.140625 L 1.765625 0 L 0.890625 0 Z M 0.890625 -6.5625 "/>
</symbol>
</g>
</defs>
<g id="surface29301">
<rect x="0" y="0" width="300" height="300" style="fill:rgb(100%,100%,100%);fill-opacity:1;stroke:none;"/>
<path style="fill:none;stroke-width:1.2;stroke-linecap:butt;stroke-linejoin:miter;stroke:rgb(0%,0%,0%);stroke-opacity:1;stroke-miterlimit:10;" d="M 66.882812 183.628906 L 71.171875 175.0625 "/>
<path style="fill:none;stroke-width:1.2;stroke-linecap:butt;stroke-linejoin:miter;stroke:rgb(100%,0%,0%);stroke-opacity:1;stroke-miterlimit:10;" d="M 71.171875 175.0625 L 75.464844 166.5 "/>
<path style="fill:none;stroke-width:1.2;stroke-linecap:butt;stroke-linejoin:miter;stroke:rgb(100%,0%,0%);stroke-opacity:1;stroke-miterlimit:10;" d="M 75.464844 166.5 L 70.191406 158.5 "/>
<path style="fill:none;stroke-width:1.2;stroke-linecap:butt;stroke-linejoin:miter;stroke:rgb(0%,0%,0%);stroke-opacity:1;stroke-miterlimit:10;" d="M 70.191406 158.5 L 64.917969 150.503906 "/>
<path style=" stroke:none;fill-rule:nonzero;fill:rgb(100%,100%,100%);fill-opacity:1;" d="M 71.464844 161 L 79.464844 161 L 79.464844 172 L 71.464844 172 Z M 71.464844 161 "/>
<g style="fill:rgb(100%,0%,0%);fill-opacity:1;">
  <use xlink:href="#glyph0-1" x="71.464844" y="169.663086"/>
</g>
<path style="fill:none;stroke-width:1.2;stroke-linecap:butt;stroke-linejoin:miter;stroke:rgb(0%,0%,0%);stroke-opacity:1;stroke-miterlimit:10;" d="M 64.917969 150.503906 L 45.792969 151.636719 "/>
<path style="fill:none;stroke-width:1.2;stroke-linecap:butt;stroke-linejoin:miter;stroke:rgb(0%,0%,0%);stroke-opacity:1;stroke-miterlimit:10;" d="M 62.738281 146.117188 L 47.441406 147.023438 "/>
<path style="fill:none;stroke-width:1.2;stroke-linecap:butt;stroke-linejoin:miter;stroke:rgb(0%,0%,0%);stroke-opacity:1;stroke-miterlimit:10;" d="M 73.5 133.371094 L 64.917969 150.503906 "/>
<path style="fill:none;stroke-width:1.2;stroke-linecap:butt;stroke-linejoin:miter;stroke:rgb(0%,0%,0%);stroke-opacity:1;stroke-miterlimit:10;" d="M 45.792969 151.636719 L 35.25 135.640625 "/>
<path style="fill:none;stroke-width:1.2;stroke-linecap:butt;stroke-linejoin:miter;stroke:rgb(0%,0%,0%);stroke-opacity:1;stroke-miterlimit:10;" d="M 35.25 135.640625 L 43.832031 118.511719 "/>
<path style="fill:none;stroke-width:1.2;stroke-linecap:butt;stroke-linejoin:miter;stroke:rgb(0%,0%,0%);stroke-opacity:1;stroke-miterlimit:10;" d="M 40.136719 135.945312 L 47.003906 122.242188 "/>
<path style="fill:none;stroke-width:1.2;stroke-linecap:butt;stroke-linejoin:miter;stroke:rgb(0%,0%,0%);stroke-opacity:1;stroke-miterlimit:10;" d="M 43.832031 118.511719 L 62.957031 117.375 "/>
<path style="fill:none;stroke-width:1.2;stroke-linecap:butt;stroke-linejoin:miter;stroke:rgb(0%,0%,0%);stroke-opacity:1;stroke-miterlimit:10;" d="M 62.957031 117.375 L 73.5 133.371094 "/>
<path style="fill:none;stroke-width:1.2;stroke-linecap:butt;stroke-linejoin:miter;stroke:rgb(0%,0%,0%);stroke-opacity:1;stroke-miterlimit:10;" d="M 60.246094 121.457031 L 68.683594 134.253906 "/>
<path style="fill:none;stroke-width:1.2;stroke-linecap:butt;stroke-linejoin:miter;stroke:rgb(0%,0%,0%);stroke-opacity:1;stroke-miterlimit:10;" d="M 73.5 133.371094 L 83.0625 132.804688 "/>
<path style="fill:none;stroke-width:1.2;stroke-linecap:butt;stroke-linejoin:miter;stroke:rgb(0%,0%,100%);stroke-opacity:1;stroke-miterlimit:10;" d="M 83.0625 132.804688 L 92.625 132.238281 "/>
<path style="fill:none;stroke-width:1.2;stroke-linecap:butt;stroke-linejoin:miter;stroke:rgb(0%,0%,100%);stroke-opacity:1;stroke-miterlimit:10;" d="M 92.625 132.238281 L 97.898438 140.238281 "/>
<path style="fill:none;stroke-width:1.2;stroke-linecap:butt;stroke-linejoin:miter;stroke:rgb(0%,0%,0%);stroke-opacity:1;stroke-miterlimit:10;" d="M 97.898438 140.238281 L 103.167969 148.234375 "/>
<path style="fill:none;stroke-width:1.2;stroke-linecap:butt;stroke-linejoin:miter;stroke:rgb(0%,0%,0%);stroke-opacity:1;stroke-miterlimit:10;" d="M 101.207031 115.109375 L 96.914062 123.675781 "/>
<path style="fill:none;stroke-width:1.2;stroke-linecap:butt;stroke-linejoin:miter;stroke:rgb(0%,0%,100%);stroke-opacity:1;stroke-miterlimit:10;" d="M 96.914062 123.675781 L 92.625 132.238281 "/>
<path style=" stroke:none;fill-rule:nonzero;fill:rgb(100%,100%,100%);fill-opacity:1;" d="M 89.625 126.738281 L 96.625 126.738281 L 96.625 137.738281 L 89.625 137.738281 Z M 89.625 126.738281 "/>
<g style="fill:rgb(0%,0%,100%);fill-opacity:1;">
  <use xlink:href="#glyph0-2" x="89.625" y="135.401367"/>
</g>
<path style="fill:none;stroke-width:1.2;stroke-linecap:butt;stroke-linejoin:miter;stroke:rgb(0%,0%,0%);stroke-opacity:1;stroke-miterlimit:10;" d="M 103.167969 148.234375 L 122.292969 147.101562 "/>
<path style="fill:none;stroke-width:1.2;stroke-linecap:butt;stroke-linejoin:miter;stroke:rgb(0%,0%,0%);stroke-opacity:1;stroke-miterlimit:10;" d="M 122.292969 147.101562 L 126.585938 138.539062 "/>
<path style="fill:none;stroke-width:1.2;stroke-linecap:butt;stroke-linejoin:miter;stroke:rgb(0%,0%,100%);stroke-opacity:1;stroke-miterlimit:10;" d="M 126.585938 138.539062 L 130.875 129.972656 "/>
<path style="fill:none;stroke-width:1.2;stroke-linecap:butt;stroke-linejoin:miter;stroke:rgb(0%,0%,100%);stroke-opacity:1;stroke-miterlimit:10;" d="M 130.875 129.972656 L 125.601562 121.976562 "/>
<path style="fill:none;stroke-width:1.2;stroke-linecap:butt;stroke-linejoin:miter;stroke:rgb(0%,0%,0%);stroke-opacity:1;stroke-miterlimit:10;" d="M 125.601562 121.976562 L 120.332031 113.976562 "/>
<path style="fill:none;stroke-width:1.2;stroke-linecap:butt;stroke-linejoin:miter;stroke:rgb(0%,0%,100%);stroke-opacity:1;stroke-miterlimit:10;" d="M 130.875 129.972656 L 140.4375 129.40625 "/>
<path style="fill:none;stroke-width:1.2;stroke-linecap:butt;stroke-linejoin:miter;stroke:rgb(0%,0%,0%);stroke-opacity:1;stroke-miterlimit:10;" d="M 140.4375 129.40625 L 150 128.839844 "/>
<path style=" stroke:none;fill-rule:nonzero;fill:rgb(100%,100%,100%);fill-opacity:1;" d="M 127.875 124.472656 L 134.875 124.472656 L 134.875 135.472656 L 127.875 135.472656 Z M 127.875 124.472656 "/>
<g style="fill:rgb(0%,0%,100%);fill-opacity:1;">
  <use xlink:href="#glyph0-2" x="127.875" y="133.135742"/>
</g>
<path style="fill:none;stroke-width:1.2;stroke-linecap:butt;stroke-linejoin:miter;stroke:rgb(0%,0%,0%);stroke-opacity:1;stroke-miterlimit:10;" d="M 120.332031 113.976562 L 101.207031 115.109375 "/>
<path style="fill:none;stroke-width:1.2;stroke-linecap:butt;stroke-linejoin:miter;stroke:rgb(0%,0%,0%);stroke-opacity:1;stroke-miterlimit:10;" d="M 150 128.839844 L 160.542969 144.835938 "/>
<path style="fill:none;stroke-width:1.2;stroke-linecap:butt;stroke-linejoin:miter;stroke:rgb(0%,0%,0%);stroke-opacity:1;stroke-miterlimit:10;" d="M 160.542969 144.835938 L 170.105469 144.269531 "/>
<path style="fill:none;stroke-width:1.2;stroke-linecap:butt;stroke-linejoin:miter;stroke:rgb(0%,0%,100%);stroke-opacity:1;stroke-miterlimit:10;" d="M 170.105469 144.269531 L 179.667969 143.703125 "/>
<path style="fill:none;stroke-width:1.2;stroke-linecap:butt;stroke-linejoin:miter;stroke:rgb(0%,0%,100%);stroke-opacity:1;stroke-miterlimit:10;" d="M 179.667969 143.703125 L 184.941406 151.699219 "/>
<path style="fill:none;stroke-width:1.2;stroke-linecap:butt;stroke-linejoin:miter;stroke:rgb(0%,0%,0%);stroke-opacity:1;stroke-miterlimit:10;" d="M 184.941406 151.699219 L 190.214844 159.699219 "/>
<path style="fill:none;stroke-width:1.2;stroke-linecap:butt;stroke-linejoin:miter;stroke:rgb(0%,0%,100%);stroke-opacity:1;stroke-miterlimit:10;" d="M 179.667969 143.703125 L 183.960938 135.136719 "/>
<path style="fill:none;stroke-width:1.2;stroke-linecap:butt;stroke-linejoin:miter;stroke:rgb(0%,0%,0%);stroke-opacity:1;stroke-miterlimit:10;" d="M 183.960938 135.136719 L 188.25 126.574219 "/>
<path style=" stroke:none;fill-rule:nonzero;fill:rgb(100%,100%,100%);fill-opacity:1;" d="M 176.667969 138.203125 L 183.667969 138.203125 L 183.667969 149.203125 L 176.667969 149.203125 Z M 176.667969 138.203125 "/>
<g style="fill:rgb(0%,0%,100%);fill-opacity:1;">
  <use xlink:href="#glyph0-2" x="176.667969" y="146.866211"/>
</g>
<path style="fill:none;stroke-width:1.2;stroke-linecap:butt;stroke-linejoin:miter;stroke:rgb(0%,0%,0%);stroke-opacity:1;stroke-miterlimit:10;" d="M 190.214844 159.699219 L 181.632812 176.828125 "/>
<path style="fill:none;stroke-width:1.2;stroke-linecap:butt;stroke-linejoin:miter;stroke:rgb(0%,0%,0%);stroke-opacity:1;stroke-miterlimit:10;" d="M 193.386719 163.429688 L 186.519531 177.132812 "/>
<path style="fill:none;stroke-width:1.2;stroke-linecap:butt;stroke-linejoin:miter;stroke:rgb(0%,0%,100%);stroke-opacity:1;stroke-miterlimit:10;" d="M 209.339844 158.566406 L 199.777344 159.132812 "/>
<path style="fill:none;stroke-width:1.2;stroke-linecap:butt;stroke-linejoin:miter;stroke:rgb(0%,0%,0%);stroke-opacity:1;stroke-miterlimit:10;" d="M 199.777344 159.132812 L 190.214844 159.699219 "/>
<path style="fill:none;stroke-width:1.2;stroke-linecap:butt;stroke-linejoin:miter;stroke:rgb(0%,0%,0%);stroke-opacity:1;stroke-miterlimit:10;" d="M 181.632812 176.828125 L 192.175781 192.824219 "/>
<path style="fill:none;stroke-width:1.2;stroke-linecap:butt;stroke-linejoin:miter;stroke:rgb(0%,0%,0%);stroke-opacity:1;stroke-miterlimit:10;" d="M 192.175781 192.824219 L 211.300781 191.691406 "/>
<path style="fill:none;stroke-width:1.2;stroke-linecap:butt;stroke-linejoin:miter;stroke:rgb(0%,0%,0%);stroke-opacity:1;stroke-miterlimit:10;" d="M 193.820312 188.210938 L 209.121094 187.304688 "/>
<path style="fill:none;stroke-width:1.2;stroke-linecap:butt;stroke-linejoin:miter;stroke:rgb(0%,0%,0%);stroke-opacity:1;stroke-miterlimit:10;" d="M 211.300781 191.691406 L 219.882812 174.5625 "/>
<path style="fill:none;stroke-width:1.2;stroke-linecap:butt;stroke-linejoin:miter;stroke:rgb(0%,0%,0%);stroke-opacity:1;stroke-miterlimit:10;" d="M 219.882812 174.5625 L 214.609375 166.5625 "/>
<path style="fill:none;stroke-width:1.2;stroke-linecap:butt;stroke-linejoin:miter;stroke:rgb(0%,0%,100%);stroke-opacity:1;stroke-miterlimit:10;" d="M 214.609375 166.5625 L 209.339844 158.566406 "/>
<path style="fill:none;stroke-width:1.2;stroke-linecap:butt;stroke-linejoin:miter;stroke:rgb(0%,0%,0%);stroke-opacity:1;stroke-miterlimit:10;" d="M 215.0625 175.441406 L 210.847656 169.042969 "/>
<path style="fill:none;stroke-width:1.2;stroke-linecap:butt;stroke-linejoin:miter;stroke:rgb(0%,0%,100%);stroke-opacity:1;stroke-miterlimit:10;" d="M 210.847656 169.042969 L 206.628906 162.644531 "/>
<path style=" stroke:none;fill-rule:nonzero;fill:rgb(100%,100%,100%);fill-opacity:1;" d="M 206.339844 153.066406 L 213.339844 153.066406 L 213.339844 164.066406 L 206.339844 164.066406 Z M 206.339844 153.066406 "/>
<g style="fill:rgb(0%,0%,100%);fill-opacity:1;">
  <use xlink:href="#glyph0-2" x="206.339844" y="161.729492"/>
</g>
<path style="fill:none;stroke-width:1.2;stroke-linecap:butt;stroke-linejoin:miter;stroke:rgb(0%,0%,0%);stroke-opacity:1;stroke-miterlimit:10;" d="M 190.132812 125.332031 L 184.859375 117.335938 "/>
<path style="fill:none;stroke-width:1.2;stroke-linecap:butt;stroke-linejoin:miter;stroke:rgb(100%,0%,0%);stroke-opacity:1;stroke-miterlimit:10;" d="M 184.859375 117.335938 L 179.585938 109.335938 "/>
<path style="fill:none;stroke-width:1.2;stroke-linecap:butt;stroke-linejoin:miter;stroke:rgb(0%,0%,0%);stroke-opacity:1;stroke-miterlimit:10;" d="M 186.367188 127.8125 L 181.097656 119.816406 "/>
<path style="fill:none;stroke-width:1.2;stroke-linecap:butt;stroke-linejoin:miter;stroke:rgb(100%,0%,0%);stroke-opacity:1;stroke-miterlimit:10;" d="M 181.097656 119.816406 L 175.824219 111.816406 "/>
<path style="fill:none;stroke-width:1.2;stroke-linecap:butt;stroke-linejoin:miter;stroke:rgb(0%,0%,0%);stroke-opacity:1;stroke-miterlimit:10;" d="M 188.25 126.574219 L 207.375 125.4375 "/>
<path style=" stroke:none;fill-rule:nonzero;fill:rgb(100%,100%,100%);fill-opacity:1;" d="M 169.707031 105.078125 L 177.707031 105.078125 L 177.707031 116.078125 L 169.707031 116.078125 Z M 169.707031 105.078125 "/>
<g style="fill:rgb(100%,0%,0%);fill-opacity:1;">
  <use xlink:href="#glyph0-1" x="169.707031" y="113.741211"/>
</g>
<path style="fill:none;stroke-width:1.2;stroke-linecap:butt;stroke-linejoin:miter;stroke:rgb(0%,0%,0%);stroke-opacity:1;stroke-miterlimit:10;" d="M 207.375 125.4375 L 217.917969 141.433594 "/>
<path style="fill:none;stroke-width:1.2;stroke-linecap:butt;stroke-linejoin:miter;stroke:rgb(0%,0%,0%);stroke-opacity:1;stroke-miterlimit:10;" d="M 212.191406 124.558594 L 220.628906 137.355469 "/>
<path style="fill:none;stroke-width:1.2;stroke-linecap:butt;stroke-linejoin:miter;stroke:rgb(0%,0%,0%);stroke-opacity:1;stroke-miterlimit:10;" d="M 215.957031 108.308594 L 207.375 125.4375 "/>
<path style="fill:none;stroke-width:1.2;stroke-linecap:butt;stroke-linejoin:miter;stroke:rgb(0%,0%,0%);stroke-opacity:1;stroke-miterlimit:10;" d="M 217.917969 141.433594 L 237.042969 140.300781 "/>
<path style="fill:none;stroke-width:1.2;stroke-linecap:butt;stroke-linejoin:miter;stroke:rgb(0%,0%,0%);stroke-opacity:1;stroke-miterlimit:10;" d="M 237.042969 140.300781 L 245.625 123.171875 "/>
<path style="fill:none;stroke-width:1.2;stroke-linecap:butt;stroke-linejoin:miter;stroke:rgb(0%,0%,0%);stroke-opacity:1;stroke-miterlimit:10;" d="M 233.871094 136.570312 L 240.738281 122.867188 "/>
<path style="fill:none;stroke-width:1.2;stroke-linecap:butt;stroke-linejoin:miter;stroke:rgb(0%,0%,0%);stroke-opacity:1;stroke-miterlimit:10;" d="M 245.625 123.171875 L 235.082031 107.175781 "/>
<path style="fill:none;stroke-width:1.2;stroke-linecap:butt;stroke-linejoin:miter;stroke:rgb(0%,0%,0%);stroke-opacity:1;stroke-miterlimit:10;" d="M 245.625 123.171875 L 255.1875 122.605469 "/>
<path style="fill:none;stroke-width:1.2;stroke-linecap:butt;stroke-linejoin:miter;stroke:rgb(20%,80%,80%);stroke-opacity:1;stroke-miterlimit:10;" d="M 255.1875 122.605469 L 264.75 122.039062 "/>
<path style="fill:none;stroke-width:1.2;stroke-linecap:butt;stroke-linejoin:miter;stroke:rgb(0%,0%,0%);stroke-opacity:1;stroke-miterlimit:10;" d="M 235.082031 107.175781 L 215.957031 108.308594 "/>
<path style="fill:none;stroke-width:1.2;stroke-linecap:butt;stroke-linejoin:miter;stroke:rgb(0%,0%,0%);stroke-opacity:1;stroke-miterlimit:10;" d="M 233.433594 111.789062 L 218.136719 112.695312 "/>
<path style=" stroke:none;fill-rule:nonzero;fill:rgb(100%,100%,100%);fill-opacity:1;" d="M 261.75 116.539062 L 267.75 116.539062 L 267.75 127.539062 L 261.75 127.539062 Z M 261.75 116.539062 "/>
<g style="fill:rgb(20%,80%,80%);fill-opacity:1;">
  <use xlink:href="#glyph0-3" x="261.75" y="125.202148"/>
</g>
</g>
</svg>

<svg xmlns="http://www.w3.org/2000/svg" xmlns:xlink="http://www.w3.org/1999/xlink" width="300pt" height="300pt" viewBox="0 0 300 300"><defs><symbol overflow="visible"><path d="M.453 1.594v-7.938h4.5v7.938zm.5-.5h3.5v-6.938h-3.5zm0 0"/></symbol><symbol overflow="visible" id="a"><path d="M3.547-5.953c-.65 0-1.164.242-1.547.72-.375.48-.563 1.13-.563 1.952 0 .835.188 1.49.563 1.967.383.48.898.72 1.547.72.644 0 1.156-.24 1.53-.72.376-.476.564-1.132.564-1.968 0-.822-.187-1.474-.562-1.954-.375-.477-.887-.72-1.53-.72zm0-.734c.914 0 1.648.312 2.203.937.55.617.828 1.438.828 2.47 0 1.042-.277 1.87-.828 2.483-.555.617-1.29.922-2.203.922-.93 0-1.668-.305-2.22-.922C.774-1.41.5-2.237.5-3.28c0-1.033.273-1.853.828-2.47.55-.625 1.29-.938 2.22-.938zm0 0"/></symbol><symbol overflow="visible" id="b"><path d="M.89-6.563H2.08l2.906 5.485v-5.484h.86V0H4.656L1.75-5.484V0H.89zm0 0"/></symbol><symbol overflow="visible" id="c"><path d="M.89-6.563h3.766v.75h-2.89v1.938h2.61v.734h-2.61V0H.89zm0 0"/></symbol></defs><g><path fill="#fff" d="M0 0h300v300H0z"/><path d="M66.883 183.63l4.29-8.567" stroke-width="1.2" stroke="#000" stroke-miterlimit="10" fill="none"/><path d="M71.172 175.063l4.293-8.563M75.465 166.5l-5.274-8" stroke-width="1.2" stroke="#f00" stroke-miterlimit="10" fill="none"/><path d="M70.19 158.5l-5.272-7.996" stroke-width="1.2" stroke="#000" stroke-miterlimit="10" fill="none"/><path d="M71.465 161h8v11h-8zm0 0" fill="#fff"/><use xlink:href="#a" x="71.465" y="169.663" fill="#f00"/><path d="M64.918 150.504l-19.125 1.133M62.738 146.117l-15.297.906M73.5 133.37l-8.582 17.134M45.793 151.637L35.25 135.64M35.25 135.64l8.582-17.128M40.137 135.945l6.867-13.703M43.832 118.512l19.125-1.137M62.957 117.375L73.5 133.37M60.246 121.457l8.438 12.797M73.5 133.37l9.563-.565" stroke-width="1.2" stroke="#000" stroke-miterlimit="10" fill="none"/><path d="M83.063 132.805l9.562-.567M92.625 132.238l5.273 8" stroke-width="1.2" stroke="#00f" stroke-miterlimit="10" fill="none"/><path d="M97.898 140.238l5.27 7.996M101.207 115.11l-4.293 8.566" stroke-width="1.2" stroke="#000" stroke-miterlimit="10" fill="none"/><path d="M96.914 123.676l-4.29 8.562" stroke-width="1.2" stroke="#00f" stroke-miterlimit="10" fill="none"/><path d="M89.625 126.738h7v11h-7zm0 0" fill="#fff"/><use xlink:href="#b" x="89.625" y="135.401" fill="#00f"/><path d="M103.168 148.234l19.125-1.132M122.293 147.102l4.293-8.563" stroke-width="1.2" stroke="#000" stroke-miterlimit="10" fill="none"/><path d="M126.586 138.54l4.29-8.567M130.875 129.973l-5.273-7.996" stroke-width="1.2" stroke="#00f" stroke-miterlimit="10" fill="none"/><path d="M125.602 121.977l-5.27-8" stroke-width="1.2" stroke="#000" stroke-miterlimit="10" fill="none"/><path d="M130.875 129.973l9.563-.567" stroke-width="1.2" stroke="#00f" stroke-miterlimit="10" fill="none"/><path d="M140.438 129.406l9.562-.566" stroke-width="1.2" stroke="#000" stroke-miterlimit="10" fill="none"/><path d="M127.875 124.473h7v11h-7zm0 0" fill="#fff"/><use xlink:href="#b" x="127.875" y="133.136" fill="#00f"/><path d="M120.332 113.977l-19.125 1.132M150 128.84l10.543 15.996M160.543 144.836l9.562-.566" stroke-width="1.2" stroke="#000" stroke-miterlimit="10" fill="none"/><path d="M170.105 144.27l9.563-.567M179.668 143.703l5.273 7.996" stroke-width="1.2" stroke="#00f" stroke-miterlimit="10" fill="none"/><path d="M184.94 151.7l5.275 8" stroke-width="1.2" stroke="#000" stroke-miterlimit="10" fill="none"/><path d="M179.668 143.703l4.293-8.566" stroke-width="1.2" stroke="#00f" stroke-miterlimit="10" fill="none"/><path d="M183.96 135.137l4.29-8.563" stroke-width="1.2" stroke="#000" stroke-miterlimit="10" fill="none"/><path d="M176.668 138.203h7v11h-7zm0 0" fill="#fff"/><use xlink:href="#b" x="176.668" y="146.866" fill="#00f"/><path d="M190.215 159.7l-8.582 17.128M193.387 163.43l-6.867 13.703" stroke-width="1.2" stroke="#000" stroke-miterlimit="10" fill="none"/><path d="M209.34 158.566l-9.563.567" stroke-width="1.2" stroke="#00f" stroke-miterlimit="10" fill="none"/><path d="M199.777 159.133l-9.562.566M181.633 176.828l10.543 15.996M192.176 192.824l19.125-1.133M193.82 188.21l15.3-.905M211.3 191.69l8.583-17.127M219.883 174.563l-5.274-8" stroke-width="1.2" stroke="#000" stroke-miterlimit="10" fill="none"/><path d="M214.61 166.563l-5.27-7.997" stroke-width="1.2" stroke="#00f" stroke-miterlimit="10" fill="none"/><path d="M215.063 175.44l-4.215-6.397" stroke-width="1.2" stroke="#000" stroke-miterlimit="10" fill="none"/><path d="M210.848 169.043l-4.22-6.398" stroke-width="1.2" stroke="#00f" stroke-miterlimit="10" fill="none"/><path d="M206.34 153.066h7v11h-7zm0 0" fill="#fff"/><use xlink:href="#b" x="206.34" y="161.729" fill="#00f"/><path d="M190.133 125.332l-5.274-7.996" stroke-width="1.2" stroke="#000" stroke-miterlimit="10" fill="none"/><path d="M184.86 117.336l-5.274-8" stroke-width="1.2" stroke="#f00" stroke-miterlimit="10" fill="none"/><path d="M186.367 127.813l-5.27-7.997" stroke-width="1.2" stroke="#000" stroke-miterlimit="10" fill="none"/><path d="M181.098 119.816l-5.274-8" stroke-width="1.2" stroke="#f00" stroke-miterlimit="10" fill="none"/><path d="M188.25 126.574l19.125-1.136" stroke-width="1.2" stroke="#000" stroke-miterlimit="10" fill="none"/><path d="M169.707 105.078h8v11h-8zm0 0" fill="#fff"/><use xlink:href="#a" x="169.707" y="113.741" fill="#f00"/><path d="M207.375 125.438l10.543 15.996M212.19 124.56l8.44 12.795M215.957 108.31l-8.582 17.127M217.918 141.434l19.125-1.133M237.043 140.3l8.582-17.128M233.87 136.57l6.868-13.703M245.625 123.172l-10.543-15.996M245.625 123.172l9.563-.567" stroke-width="1.2" stroke="#000" stroke-miterlimit="10" fill="none"/><path d="M255.188 122.605l9.562-.566" stroke-width="1.2" stroke="#3cc" stroke-miterlimit="10" fill="none"/><path d="M235.082 107.176l-19.125 1.133M233.434 111.79l-15.297.905" stroke-width="1.2" stroke="#000" stroke-miterlimit="10" fill="none"/><path d="M261.75 116.54h6v11h-6zm0 0" fill="#fff"/><use xlink:href="#c" x="261.75" y="125.202" fill="#3cc"/></g></svg>
